priv/static/svgs/icons_new/sport-esport-generic.svg

<svg width="32" height="32" viewBox="0 0 32 32" fill="none" xmlns="http://www.w3.org/2000/svg">
<path d="M11.0117 12.5963V14.5689M11.0117 14.5689V16.5411M11.0117 14.5689H9.12126M11.0117 14.5689H12.9022M22.9328 24C21.9309 24 20.9985 23.483 20.4377 22.6165L20.3303 22.45C19.4584 21.1027 18.0066 20.2978 16.4475 20.2978H15.5525C13.9934 20.2978 12.5421 21.1027 11.6696 22.4504L11.5623 22.6165C11.0024 23.483 10.0691 24 9.06725 24C8.11457 24 7.20877 23.5225 6.64384 22.7223L6.58658 22.6414C6.20334 22.0981 6 21.4541 6 20.779V19.7145C6 16.2663 6.73942 12.7931 8.13756 9.67C8.59158 8.65577 9.57853 8 10.6516 8H10.9356C11.7174 8 12.4668 8.34623 12.9916 8.95072C13.2842 9.28755 13.7022 9.48089 14.1377 9.48089H17.8628C18.2983 9.48089 18.7158 9.28755 19.0084 8.95072C19.5332 8.34623 20.2826 8 21.0648 8H21.3484C22.4219 8 23.4089 8.65577 23.8629 9.67C25.261 12.7936 26 16.2667 26 19.7145V20.779C26 21.4541 25.7971 22.0981 25.4134 22.6419L25.3562 22.7228C24.7912 23.5225 23.8854 24 22.9328 24ZM16.5272 17.7326C16.5272 18.0365 16.2911 18.2828 15.9998 18.2828C15.7089 18.2828 15.4728 18.0365 15.4728 17.7326C15.4728 17.4287 15.7089 17.1824 15.9998 17.1824C16.2911 17.1824 16.5272 17.4287 16.5272 17.7326ZM21.5939 12.8463C21.5939 13.1112 21.3881 13.3258 21.1343 13.3258C20.8807 13.3258 20.6749 13.1112 20.6749 12.8463C20.6749 12.5814 20.8807 12.3667 21.1343 12.3667C21.3881 12.3667 21.5939 12.5814 21.5939 12.8463ZM21.5939 16.291C21.5939 16.5559 21.3881 16.7706 21.1343 16.7706C20.8807 16.7706 20.6749 16.5559 20.6749 16.291C20.6749 16.0262 20.8807 15.8115 21.1343 15.8115C21.3881 15.8115 21.5939 16.0262 21.5939 16.291ZM19.8662 14.5688C19.8662 14.8337 19.6604 15.0484 19.4065 15.0484C19.153 15.0484 18.9472 14.8337 18.9472 14.5688C18.9472 14.3039 19.153 14.0892 19.4065 14.0892C19.6604 14.0892 19.8662 14.3039 19.8662 14.5688ZM23.2577 14.5688C23.2577 14.8337 23.0519 15.0484 22.7981 15.0484C22.5445 15.0484 22.3387 14.8337 22.3387 14.5688C22.3387 14.3039 22.5445 14.0892 22.7981 14.0892C23.0519 14.0892 23.2577 14.3039 23.2577 14.5688Z" stroke="black" stroke-linecap="round"/>
</svg>

<svg width="32" height="32" viewBox="0 0 32 32" fill="none" xmlns="http://www.w3.org/2000/svg">
  <symbol id="item" viewBox="0 0 32 32" stroke-width="1" fill="none">
    <path d="M11.012 12.596v1.973m0 0v1.972m0-1.972h-1.89m1.89 0h1.89M22.932 24c-1.001 0-1.933-.517-2.494-1.384l-.108-.166c-.872-1.347-2.323-2.152-3.882-2.152h-.896c-1.559 0-3.01.805-3.882 2.152l-.108.166C11.002 23.483 10.07 24 9.067 24a2.982 2.982 0 0 1-2.423-1.278l-.057-.08A3.213 3.213 0 0 1 6 20.778v-1.064c0-3.449.74-6.922 2.138-10.045C8.592 8.656 9.578 8 10.652 8h.284c.781 0 1.53.346 2.056.95.292.338.71.53 1.146.53h3.725c.435 0 .853-.192 1.145-.53A2.728 2.728 0 0 1 21.065 8h.283c1.074 0 2.06.656 2.515 1.67A24.767 24.767 0 0 1 26 19.715v1.064c0 .675-.203 1.32-.587 1.863l-.057.08A2.983 2.983 0 0 1 22.933 24Zm-6.405-6.267a.54.54 0 0 1-.527.55.54.54 0 0 1-.527-.55.54.54 0 0 1 .527-.55.54.54 0 0 1 .527.55Zm5.067-4.887a.47.47 0 0 1-.46.48.47.47 0 0 1-.46-.48.47.47 0 0 1 .46-.48.47.47 0 0 1 .46.48Zm0 3.445a.47.47 0 0 1-.46.48.47.47 0 0 1-.46-.48.47.47 0 0 1 .46-.48.47.47 0 0 1 .46.48Zm-1.728-1.722a.47.47 0 0 1-.46.48.47.47 0 0 1-.459-.48.47.47 0 0 1 .46-.48.47.47 0 0 1 .46.48Zm3.392 0a.47.47 0 0 1-.46.48.47.47 0 0 1-.46-.48.47.47 0 0 1 .46-.48.47.47 0 0 1 .46.48Z" stroke="currentColor" stroke-linecap="round"/>
  </symbol>
</svg>
